packages/core/src/svgs/somm.svg

<svg width="24" height="24" viewBox="0 0 24 24" fill="none" xmlns="http://www.w3.org/2000/svg">
<g clip-path="url(#clip0_31_19009)">
<path d="M0 0H24V24H0V0Z" fill="#1F1F2D"/>
<path d="M12 8.49857C12.6627 8.49857 13.2982 8.23533 13.7668 7.76676C14.2353 7.29818 14.4986 6.66266 14.4986 6H9.50143C9.50143 6.66266 9.76467 7.29818 10.2332 7.76676C10.7018 8.23533 11.3373 8.49857 12 8.49857ZM6 14.4986V9.50143C6.66266 9.50143 7.29818 9.76467 7.76676 10.2332C8.23533 10.7018 8.49857 11.3373 8.49857 12C8.49857 12.6627 8.23533 13.2982 7.76676 13.7668C7.29818 14.2353 6.66266 14.4986 6 14.4986ZM12 14.5714C13.38 14.5714 14.5714 13.38 14.5714 12C14.5714 10.62 13.38 9.42857 12 9.42857C10.62 9.42857 9.42857 10.62 9.42857 12C9.42857 13.38 10.62 14.5714 12 14.5714ZM15.5014 12C15.5014 12.6627 15.7647 13.2982 16.2332 13.7668C16.7018 14.2353 17.3373 14.4986 18 14.4986V9.50143C17.3373 9.50143 16.7018 9.76467 16.2332 10.2332C15.7647 10.7018 15.5014 11.3373 15.5014 12ZM18 6V8.49857C17.3373 8.49857 16.7018 8.23533 16.2332 7.76676C15.7647 7.29818 15.5014 6.66266 15.5014 6H18ZM6 8.49857C6.66266 8.49857 7.29818 8.23533 7.76676 7.76676C8.23533 7.29818 8.49857 6.66266 8.49857 6H6V8.49857ZM10.2343 16.2343C10.5837 15.8853 11.0287 15.6476 11.5131 15.5514C11.9975 15.4552 12.4996 15.5046 12.9559 15.6936C13.4122 15.8825 13.8022 16.2025 14.0768 16.613C14.3514 17.0235 14.4982 17.5061 14.4986 18H9.50143C9.50143 17.3357 9.76286 16.7014 10.23 16.2343H10.2343ZM15.5014 18H18V15.5014C17.3373 15.5014 16.7018 15.7647 16.2332 16.2332C15.7647 16.7018 15.5014 17.3373 15.5014 18ZM6 18V15.5014C6.66266 15.5014 7.29818 15.7647 7.76676 16.2332C8.23533 16.7018 8.49857 17.3373 8.49857 18H6Z" fill="#F26057"/>
</g>
<defs>
<clipPath id="clip0_31_19009">
<rect width="24" height="24" fill="white"/>
</clipPath>
</defs>
</svg>

<svg xmlns="http://www.w3.org/2000/svg" width="24" height="24" fill="none" viewBox="0 0 24 24"><g clip-path="url(#a)"><path fill="#1F1F2D" d="M0 0h24v24H0z"/><path fill="#F26057" d="M12 8.499A2.5 2.5 0 0 0 14.499 6H9.5A2.5 2.5 0 0 0 12 8.499m-6 6V9.5A2.499 2.499 0 0 1 6 14.5m6 .072c1.38 0 2.571-1.191 2.571-2.571S13.38 9.429 12 9.429 9.429 10.62 9.429 12 10.62 14.571 12 14.571M15.501 12A2.5 2.5 0 0 0 18 14.499V9.5A2.5 2.5 0 0 0 15.501 12M18 6v2.499A2.5 2.5 0 0 1 15.501 6zM6 8.499A2.5 2.5 0 0 0 8.499 6H6zm4.234 7.735A2.498 2.498 0 0 1 14.5 18H9.5c0-.664.262-1.299.729-1.766zM15.501 18H18v-2.499A2.5 2.5 0 0 0 15.501 18M6 18v-2.499A2.5 2.5 0 0 1 8.499 18z"/></g><defs><clipPath id="a"><path fill="#fff" d="M0 0h24v24H0z"/></clipPath></defs></svg>
